svgs/thin/pump-medical.svg

<svg xmlns="http://www.w3.org/2000/svg" viewBox="0 0 384 512"><!--! Font Awesome Pro 6.3.0 by @fontawesome - https://fontawesome.com License - https://fontawesome.com/license (Commercial License) Copyright 2023 Fonticons, Inc. --><path d="M235.6 160H84.37C51.27 160 23.63 185.2 20.63 218.2l-20.36 224C-3.139 479.7 26.37 512 64.01 512h191.1c37.63 0 67.14-32.31 63.74-69.79l-20.36-224C296.4 185.2 268.7 160 235.6 160zM291.4 480.4C282.2 490.4 269.6 496 255.1 496H64.01c-13.65 0-26.24-5.551-35.44-15.63c-9.207-10.08-13.6-23.12-12.36-36.71l20.36-224C38.83 194.8 59.38 176 84.37 176h151.3c24.99 0 45.54 18.77 47.8 43.65l20.36 223.1C305 457.2 300.6 470.3 291.4 480.4zM365.7 114.3l-46.63-46.63C311.5 60.16 301.4 56 290.8 56H224L223.1 32c0-17.67-14.33-32-32-32H127.1c-17.67 0-32 14.33-32 32L96 120C96 124.4 99.58 128 104 128S112 124.4 112 120V32c0-8.836 7.164-16 16-16h64c8.838 0 16 7.164 16 16v88C208 124.4 211.6 128 216 128S224 124.4 224 120v-48h66.75c6.312 0 12.5 2.562 16.97 7.031l46.63 46.63C355.9 127.2 357.1 128 360 128s4.094-.7813 5.656-2.344C368.8 122.5 368.8 117.5 365.7 114.3zM232 280h-32v-32c0-8.836-7.162-16-16-16h-48c-8.836 0-16 7.164-16 16v32h-32c-8.836 0-16 7.164-16 16v48c0 8.836 7.164 16 16 16h32v32c0 8.836 7.164 16 16 16h48c8.838 0 16-7.164 16-16v-32h32c8.838 0 16-7.164 16-16v-48C248 287.2 240.8 280 232 280zM232 344h-48v48h-48v-48h-48v-48h48v-48h48v48h48V344z"/></svg>

<svg xmlns="http://www.w3.org/2000/svg" viewBox="0 0 384 512"><!-- Font Awesome Pro 6.0.0-alpha2 by @fontawesome - https://fontawesome.com License - https://fontawesome.com/license (Commercial License) --><path d="M235.631 160H84.369C51.268 160 23.629 185.24 20.631 218.205L0.268 442.205C-3.138 479.686 26.371 512 64.006 512H255.994C293.629 512 323.139 479.686 319.733 442.205L299.369 218.205C296.371 185.24 268.733 160 235.631 160ZM291.44 480.369C282.233 490.449 269.647 496 255.994 496H64.006C50.356 496 37.768 490.449 28.563 480.369C19.356 470.289 14.967 457.25 16.203 443.654L36.567 219.654C38.828 194.768 59.379 176 84.369 176H235.631C260.619 176 281.172 194.768 283.436 219.654L303.799 443.652C305.034 457.248 300.645 470.287 291.44 480.369ZM365.657 114.344L319.032 67.719C311.469 60.156 301.438 56 290.75 56H224V32C224 14.326 209.674 0 192 0H128C110.328 0 96 14.326 96 32V120C96 124.418 99.582 128 104 128S112 124.418 112 120V32C112 23.164 119.164 16 128 16H192C200.838 16 208 23.164 208 32V120C208 124.418 211.582 128 216 128S224 124.418 224 120V72H290.75C297.063 72 303.25 74.562 307.719 79.031L354.344 125.656C355.907 127.219 357.953 128 360 128S364.094 127.219 365.657 125.656C368.782 122.531 368.782 117.469 365.657 114.344ZM232 280H200V248C200 239.164 192.838 232 184 232H136C127.164 232 120 239.164 120 248V280H88C79.164 280 72 287.164 72 296V344C72 352.836 79.164 360 88 360H120V392C120 400.836 127.164 408 136 408H184C192.838 408 200 400.836 200 392V360H232C240.838 360 248 352.836 248 344V296C248 287.164 240.838 280 232 280ZM232 344H184V392H136V344H88V296H136V248H184V296H232V344Z"/></svg>
